assets/icons/24px/stroke/return-right-24px.svg

<svg width="24" height="24" viewBox="0 0 24 24" fill="none" xmlns="http://www.w3.org/2000/svg">
<g clip-path="url(#clip0_878_24617)">
<path fill-rule="evenodd" clip-rule="evenodd" d="M4.9387 6.06431C5.40121 6.00213 6.02892 6 7 6L9.5 6C10.0523 6 10.5 5.55229 10.5 5C10.5 4.44772 10.0523 4 9.5 4L6.93417 4C6.04768 3.99995 5.28387 3.99991 4.67221 4.08215C4.01669 4.17028 3.38834 4.36902 2.87868 4.87868C2.36902 5.38835 2.17027 6.0167 2.08214 6.67221C1.9999 7.28388 1.99995 8.0477 2 8.9342V9.06581C1.99995 9.95231 1.9999 10.7161 2.08214 11.3278C2.17027 11.9833 2.36902 12.6117 2.87868 13.1213C3.38834 13.631 4.01669 13.8297 4.67221 13.9179C5.28387 14.0001 6.04768 14.0001 6.93417 14L19.365 14L15.7318 18.3598C15.3782 18.7841 15.4355 19.4147 15.8598 19.7682C16.2841 20.1218 16.9147 20.0645 17.2682 19.6402L22.2682 13.6402C22.5773 13.2693 22.5773 12.7307 22.2682 12.3598L17.2682 6.35982C16.9147 5.93554 16.2841 5.87822 15.8598 6.23178C15.4355 6.58535 15.3782 7.21591 15.7318 7.64019L19.365 12L7 12C6.02892 12 5.40121 11.9979 4.9387 11.9357C4.50496 11.8774 4.36902 11.7832 4.29289 11.7071C4.21677 11.631 4.12262 11.495 4.06431 11.0613C4.00212 10.5988 4 9.97108 4 9C4 8.02893 4.00212 7.40122 4.06431 6.93871C4.12262 6.50497 4.21677 6.36902 4.29289 6.2929C4.36902 6.21677 4.50496 6.12263 4.9387 6.06431Z" fill="white"/>
</g>
<defs>
<clipPath id="clip0_878_24617">
<rect width="24" height="24" fill="white"/>
</clipPath>
</defs>
</svg>

<svg width="24" height="24" fill="none" xmlns="http://www.w3.org/2000/svg"><g clip-path="url(#clip0_878_24617)"><path fill-rule="evenodd" clip-rule="evenodd" d="M4.939 6.064C5.4 6.002 6.029 6 7 6h2.5a1 1 0 1 0 0-2H6.934c-.886 0-1.65 0-2.262.082-.655.088-1.284.287-1.793.797-.51.51-.709 1.138-.797 1.793C2 7.284 2 8.048 2 8.934v.132c0 .886 0 1.65.082 2.262.088.655.287 1.284.797 1.793.51.51 1.138.709 1.793.797C5.284 14 6.048 14 6.934 14h12.431l-3.633 4.36a1 1 0 1 0 1.536 1.28l5-6a1 1 0 0 0 0-1.28l-5-6a1 1 0 1 0-1.536 1.28L19.365 12H7c-.971 0-1.599-.002-2.061-.064-.434-.059-.57-.153-.646-.229-.076-.076-.17-.212-.229-.646C4.002 10.6 4 9.971 4 9c0-.971.002-1.599.064-2.061.059-.434.153-.57.229-.646.076-.076.212-.17.646-.229z" fill="#fff"/></g><defs><clipPath id="clip0_878_24617"><path fill="#fff" d="M0 0H24V24H0z"/></clipPath></defs></svg>
